projects/flag-game/flags/Uganda.svg

<svg viewBox="0 0 1000 667" xmlns="http://www.w3.org/2000/svg" xmlns:xlink="http://www.w3.org/1999/xlink"><clipPath id="a"><path d="m0 0h1000v666.71875h-1000zm0 0"/></clipPath><clipPath id="b"><path d="m0 555h1000v111.71875h-1000zm0 0"/></clipPath><g clip-path="url(#a)"><path d="m0 666.667969v-666.667969h1000v666.667969zm0 0" fill-rule="evenodd"/></g><path d="m0 111.109375h1000v111.113281h-1000zm0 0" fill="#fcdc04" fill-rule="evenodd"/><path d="m0 222.222656h1000v111.109375h-1000zm0 0" fill="#d90000" fill-rule="evenodd"/><path d="m0 444.445312h1000v111.109376h-1000zm0 0" fill="#fcdc04" fill-rule="evenodd"/><g clip-path="url(#b)"><path d="m0 555.554688h1000v111.113281h-1000zm0 0" fill="#d90000" fill-rule="evenodd"/></g><g fill-rule="evenodd"><path d="m603.890625 333.332031c0 57.378907-46.511719 103.890625-103.890625 103.890625s-103.890625-46.511718-103.890625-103.890625c0-57.375 46.511719-103.890625 103.890625-103.890625s103.890625 46.515625 103.890625 103.890625zm0 0" fill="#fff"/><path d="m481.6875 253.765625-6.734375-12.410156c2.597656-2.601563 6.976563-4.609375 13.945313-4.609375 0 .472656-.710938 13.59375-.710938 13.59375zm0 0" fill="#d90000" stroke="#000" stroke-width="1.111111"/><path d="m488.1875 250.457031.953125-13.710937s13.945313-.824219 21.507813 8.273437c.121093-.121093-7.445313 10.640625-7.445313 10.640625zm0 0" fill="#fcdc04" stroke="#000" stroke-width="1.111111"/><path d="m503.441406 255.539062 6.851563-10.640624c4.609375 4.851562 6.503906 8.273437 7.210937 13.476562.117188.121094-10.875 2.71875-10.875 2.601562 0-.117187-3.070312-5.316406-3.1875-5.4375zm0 0" fill="#d90000" stroke="#000" stroke-width="1.111111"/><path d="m485.117188 431.191406s12.886718-14.773437 37.945312-11.585937c-3.785156-6.144531-15.960938-5.433594-15.960938-5.433594s-3.78125-28.722656-.824218-30.144531c2.953125-1.417969 15.484375.121094 15.484375.121094 1.652343 0 4.492187-4.492188 2.246093-7.332032-2.246093-2.835937-8.867187-13.707031-6.148437-15.835937 2.71875-2.132813 17.492187 1.179687 17.492187 1.179687l-41.726562-53.425781s-4.253906-20.09375 4.257812-29.789063c10.28125-8.511718 9.21875-17.730468 8.867188-17.613281-1.421875-9.335937-15.605469-16.074219-25.179688-7.449219-5.675781 6.859376-1.894531 12.058594-1.894531 12.058594s-14.890625 4.019532-15.484375 6.621094c-.589844 2.601562 16.789063-.472656 16.789063-.472656l-1.65625 11.9375s-33.804688 30.734375-7.921875 57.328125c.238281-.117188.832031-1.179688.832031-1.179688s9.101563 11.230469 18.671875 13.707031c8.984375 9.226563 8.160156 7.804688 8.160156 7.804688s1.769532 14.539062.121094 17.375c-2.253906-.710938-25.179688-1.535156-28.609375-.238281-3.074219.949219-14.890625.359375-11.941406 19.625 2.246093-5.199219 4.257812-9.808594 4.257812-9.808594s-.355469 6.96875 2.480469 9.457031c-.472656-7.332031 2.71875-12.296875 2.71875-12.296875s.589844 8.039063 2.363281 9.21875c1.777344 1.183594 1.777344-13 11.585938-11.816406 9.8125 1.183594 16.902343.824219 16.902343.824219s3.3125 27.777344 2.246094 30.382812c-7.09375-1.660156-23.996094.707032-25.058594 4.964844 9.929688-.59375 14.539063.585938 14.539063.585938s-8.039063 7.09375-5.554687 11.230468zm0 0" stroke="#000" stroke-width="1.111111"/><path d="m489.101562 279.621094s-24.601562 27.117187-13.988281 47.863281c.566407-2.890625.320313-4.710937.671875-4.59375-.589844-.351563 3.054688 2.492187 2.777344 1.941406.078125-1.496093-1.109375-4.714843-1.109375-4.714843 1.109375.277343 2.21875.554687 3.332031.828124-.652344-1.195312-1.300781-2.402343-1.945312-3.601562 1.570312.183594 3.140625.371094 4.714844.554688 0 0-1.664063-4.4375-1.113282-4.4375.5625 0 3.886719.277343 3.886719.277343-6.992187-12.554687-.394531-22.976562 2.773437-34.117187zm0 0" fill="#9ca69c" stroke="#9ca69c" stroke-width="1.111111"/><path d="m497.644531 256.371094s1.300781 9.335937-3.78125 12.054687c-.824219.589844-4.019531 1.652344-3.546875 3.546875.589844 2.597656 2.011719 2.128906 4.019532 1.65625 5.324218-.949218 11.46875-12.296875 3.308593-17.257812zm0 0" fill="#9ca69c" stroke="#9ca69c" stroke-width="1.111111"/><path d="m488.667969 264.441406c0 1.105469-.898438 2.003906-2.003907 2.003906-1.101562 0-1.996093-.898437-1.996093-2.003906 0-1.101562.894531-1.996094 1.996093-1.996094 1.105469 0 2.003907.894532 2.003907 1.996094zm0 0" fill="#fff"/><path d="m480.625 272.207031c-1.300781 1.0625-8.152344 8.160157-1.421875 10.757813 6.980469-1.894532 5.085937-3.191406 6.625-4.730469.039063-3.191406-3.472656-4.015625-5.203125-6.027344zm0 0" fill="#d90000" stroke="#000" stroke-width="1.111111"/><path d="m495.519531 339.230469c-.351562 1.535156-1.894531 7.210937.238281 11.582031 5.90625-2.484375 8.625-1.773438 10.636719-.472656-4.847656-3.898438-6.734375-5.554688-10.875-11.109375zm0 0" fill="#9ca69c" stroke="#9ca69c" stroke-width="1.111111"/><path d="m505.6875 366.058594.351562 13.246094s4.609376.820312 6.738282 0c2.125-.832032-.121094-9.226563-7.089844-13.246094zm0 0" fill="#fff" stroke="#fff" stroke-width="1.111111"/><path d="m539.140625 367.71875s-8.515625-20.566406-30.265625-25.769531-18.914062-28.371094-17.136719-29.789063c.941407-2.007812 1.652344-5.085937 7.921875-2.128906 6.257813 2.957031 35.097656 17.496094 39.238282 18.203125 4.140624.710937.59375 39.957031.242187 39.484375zm0 0" fill="#9ca69c" stroke="#000" stroke-width="1.111111"/><path d="m518.453125 341.828125c-.359375.238281 29.078125 17.378906 20.207031 32.152344 8.398438-5.554688 5.675782-15.246094 5.675782-15.246094s6.855468 17.851563-9.808594 26.597656c1.773437 1.535157 2.957031 1.179688 2.957031 1.179688l-2.839844 2.839843s-1.300781 2.125 9.929688-3.316406c-3.074219 2.484375-3.308594 4.257813-3.308594 4.257813s.824219 2.367187 8.152344-4.019531c-5.90625 6.386718-7.207031 9.695312-7.207031 9.578124 15.953124-1.421874 50.707031-53.3125-10.992188-68.683593 3.308594 3.429687 2.835938 2.957031 2.835938 2.957031zm0 0" fill="#d90000" stroke="#000" stroke-width="1.111111"/><path d="m519.753906 336.746094c4.015625 2.835937 5.4375 3.78125 5.910156 5.203125-3.667968-.832031-6.980468-.59375-6.980468-.59375s-7.914063-7.5625-9.335938-8.152344c-1.0625 0-7.210937-3.898437-7.210937-3.898437-3.070313-1.542969-5.90625-12.183594 5.4375-9.105469 11.703125 5.554687 13.355469 6.027343 13.355469 6.027343 4.652343 1.460938 9.300781 2.917969 13.949218 4.371094 2.679688 2.996094 5.363282 5.992188 8.039063 8.984375 0 0-14.300781-7.089843-16.074219-7.207031 3.902344 3.1875 6.148438 7.5625 6.148438 7.5625-4.535157-1.296875-8.476563-2.480469-13.238282-3.191406zm0 0" fill="#fff" stroke="#000" stroke-width="1.111111"/><path d="m464.078125 273.269531s13.710937-3.308593 15.363281-2.835937zm0 0"/></g><path d="m464.078125 273.269531s13.710937-3.308593 15.363281-2.835937" fill="none" stroke="#fff" stroke-width="1.111111"/></svg>

<?xml version="1.0" encoding="UTF-8"?>
<svg xmlns="http://www.w3.org/2000/svg" xmlns:xlink="http://www.w3.org/1999/xlink" viewBox="0 0 1000 667" version="1.1">
<defs>
<clipPath id="clip1">
  <path d="M 0 0 L 1000 0 L 1000 666.71875 L 0 666.71875 Z M 0 0 "/>
</clipPath>
<clipPath id="clip2">
  <path d="M 0 555 L 1000 555 L 1000 666.71875 L 0 666.71875 Z M 0 555 "/>
</clipPath>
</defs>
<g id="surface1225">
<g clip-path="url(#clip1)" clip-rule="nonzero">
<path style=" stroke:none;fill-rule:evenodd;fill:rgb(0%,0%,0%);fill-opacity:1;" d="M 0 666.667969 L 0 0 L 1000 0 L 1000 666.667969 Z M 0 666.667969 "/>
</g>
<path style=" stroke:none;fill-rule:evenodd;fill:rgb(98.822021%,86.273193%,1.568604%);fill-opacity:1;" d="M 0 111.109375 L 1000 111.109375 L 1000 222.222656 L 0 222.222656 Z M 0 111.109375 "/>
<path style=" stroke:none;fill-rule:evenodd;fill:rgb(85.096741%,0%,0%);fill-opacity:1;" d="M 0 222.222656 L 1000 222.222656 L 1000 333.332031 L 0 333.332031 Z M 0 222.222656 "/>
<path style=" stroke:none;fill-rule:evenodd;fill:rgb(98.822021%,86.273193%,1.568604%);fill-opacity:1;" d="M 0 444.445312 L 1000 444.445312 L 1000 555.554688 L 0 555.554688 Z M 0 444.445312 "/>
<g clip-path="url(#clip2)" clip-rule="nonzero">
<path style=" stroke:none;fill-rule:evenodd;fill:rgb(85.096741%,0%,0%);fill-opacity:1;" d="M 0 555.554688 L 1000 555.554688 L 1000 666.667969 L 0 666.667969 Z M 0 555.554688 "/>
</g>
<path style=" stroke:none;fill-rule:evenodd;fill:rgb(99.998474%,99.998474%,99.998474%);fill-opacity:1;" d="M 603.890625 333.332031 C 603.890625 390.710938 557.378906 437.222656 500 437.222656 C 442.621094 437.222656 396.109375 390.710938 396.109375 333.332031 C 396.109375 275.957031 442.621094 229.441406 500 229.441406 C 557.378906 229.441406 603.890625 275.957031 603.890625 333.332031 Z M 603.890625 333.332031 "/>
<path style="fill-rule:evenodd;fill:rgb(85.096741%,0%,0%);fill-opacity:1;stroke-width:1.111111;stroke-linecap:butt;stroke-linejoin:miter;stroke:rgb(0%,0%,0%);stroke-opacity:1;stroke-miterlimit:4;" d="M 481.6875 253.765625 L 474.953125 241.355469 C 477.550781 238.753906 481.929688 236.746094 488.898438 236.746094 C 488.898438 237.21875 488.1875 250.339844 488.1875 250.339844 Z M 481.6875 253.765625 "/>
<path style="fill-rule:evenodd;fill:rgb(98.822021%,86.273193%,1.568604%);fill-opacity:1;stroke-width:1.111111;stroke-linecap:butt;stroke-linejoin:miter;stroke:rgb(0%,0%,0%);stroke-opacity:1;stroke-miterlimit:4;" d="M 488.1875 250.457031 L 489.140625 236.746094 C 489.140625 236.746094 503.085938 235.921875 510.648438 245.019531 C 510.769531 244.898438 503.203125 255.660156 503.203125 255.660156 Z M 488.1875 250.457031 "/>
<path style="fill-rule:evenodd;fill:rgb(85.096741%,0%,0%);fill-opacity:1;stroke-width:1.111111;stroke-linecap:butt;stroke-linejoin:miter;stroke:rgb(0%,0%,0%);stroke-opacity:1;stroke-miterlimit:4;" d="M 503.441406 255.539062 L 510.292969 244.898438 C 514.902344 249.75 516.796875 253.171875 517.503906 258.375 C 517.621094 258.496094 506.628906 261.09375 506.628906 260.976562 C 506.628906 260.859375 503.558594 255.660156 503.441406 255.539062 Z M 503.441406 255.539062 "/>
<path style="fill-rule:evenodd;fill:rgb(0%,0%,0%);fill-opacity:1;stroke-width:1.111111;stroke-linecap:butt;stroke-linejoin:miter;stroke:rgb(0%,0%,0%);stroke-opacity:1;stroke-miterlimit:4;" d="M 485.117188 431.191406 C 485.117188 431.191406 498.003906 416.417969 523.0625 419.605469 C 519.277344 413.460938 507.101562 414.171875 507.101562 414.171875 C 507.101562 414.171875 503.320312 385.449219 506.277344 384.027344 C 509.230469 382.609375 521.761719 384.148438 521.761719 384.148438 C 523.414062 384.148438 526.253906 379.65625 524.007812 376.816406 C 521.761719 373.980469 515.140625 363.109375 517.859375 360.980469 C 520.578125 358.847656 535.351562 362.160156 535.351562 362.160156 L 493.625 308.734375 C 493.625 308.734375 489.371094 288.640625 497.882812 278.945312 C 508.164062 270.433594 507.101562 261.214844 506.75 261.332031 C 505.328125 251.996094 491.144531 245.257812 481.570312 253.882812 C 475.894531 260.742188 479.675781 265.941406 479.675781 265.941406 C 479.675781 265.941406 464.785156 269.960938 464.191406 272.5625 C 463.601562 275.164062 480.980469 272.089844 480.980469 272.089844 L 479.324219 284.027344 C 479.324219 284.027344 445.519531 314.761719 471.402344 341.355469 C 471.640625 341.238281 472.234375 340.175781 472.234375 340.175781 C 472.234375 340.175781 481.335938 351.40625 490.90625 353.882812 C 499.890625 363.109375 499.066406 361.6875 499.066406 361.6875 C 499.066406 361.6875 500.835938 376.226562 499.1875 379.0625 C 496.933594 378.351562 474.007812 377.527344 470.578125 378.824219 C 467.503906 379.773438 455.6875 379.183594 458.636719 398.449219 C 460.882812 393.25 462.894531 388.640625 462.894531 388.640625 C 462.894531 388.640625 462.539062 395.609375 465.375 398.097656 C 464.902344 390.765625 468.09375 385.800781 468.09375 385.800781 C 468.09375 385.800781 468.683594 393.839844 470.457031 395.019531 C 472.234375 396.203125 472.234375 382.019531 482.042969 383.203125 C 491.855469 384.386719 498.945312 384.027344 498.945312 384.027344 C 498.945312 384.027344 502.257812 411.804688 501.191406 414.410156 C 494.097656 412.75 477.195312 415.117188 476.132812 419.375 C 486.0625 418.78125 490.671875 419.960938 490.671875 419.960938 C 490.671875 419.960938 482.632812 427.054688 485.117188 431.191406 Z M 485.117188 431.191406 "/>
<path style="fill-rule:evenodd;fill:rgb(61.175537%,65.097046%,61.175537%);fill-opacity:1;stroke-width:1.111111;stroke-linecap:butt;stroke-linejoin:miter;stroke:rgb(61.175537%,65.097046%,61.175537%);stroke-opacity:1;stroke-miterlimit:4;" d="M 489.101562 279.621094 C 489.101562 279.621094 464.5 306.738281 475.113281 327.484375 C 475.679688 324.59375 475.433594 322.773438 475.785156 322.890625 C 475.195312 322.539062 478.839844 325.382812 478.5625 324.832031 C 478.640625 323.335938 477.453125 320.117188 477.453125 320.117188 C 478.5625 320.394531 479.671875 320.671875 480.785156 320.945312 C 480.132812 319.75 479.484375 318.542969 478.839844 317.34375 C 480.410156 317.527344 481.980469 317.714844 483.554688 317.898438 C 483.554688 317.898438 481.890625 313.460938 482.441406 313.460938 C 483.003906 313.460938 486.328125 313.738281 486.328125 313.738281 C 479.335938 301.183594 485.933594 290.761719 489.101562 279.621094 Z M 489.101562 279.621094 "/>
<path style="fill-rule:evenodd;fill:rgb(61.175537%,65.097046%,61.175537%);fill-opacity:1;stroke-width:1.111111;stroke-linecap:butt;stroke-linejoin:miter;stroke:rgb(61.175537%,65.097046%,61.175537%);stroke-opacity:1;stroke-miterlimit:4;" d="M 497.644531 256.371094 C 497.644531 256.371094 498.945312 265.707031 493.863281 268.425781 C 493.039062 269.015625 489.84375 270.078125 490.316406 271.972656 C 490.90625 274.570312 492.328125 274.101562 494.335938 273.628906 C 499.660156 272.679688 505.804688 261.332031 497.644531 256.371094 Z M 497.644531 256.371094 "/>
<path style=" stroke:none;fill-rule:evenodd;fill:rgb(99.998474%,99.998474%,99.998474%);fill-opacity:1;" d="M 488.667969 264.441406 C 488.667969 265.546875 487.769531 266.445312 486.664062 266.445312 C 485.5625 266.445312 484.667969 265.546875 484.667969 264.441406 C 484.667969 263.339844 485.5625 262.445312 486.664062 262.445312 C 487.769531 262.445312 488.667969 263.339844 488.667969 264.441406 Z M 488.667969 264.441406 "/>
<path style="fill-rule:evenodd;fill:rgb(85.096741%,0%,0%);fill-opacity:1;stroke-width:1.111111;stroke-linecap:butt;stroke-linejoin:miter;stroke:rgb(0%,0%,0%);stroke-opacity:1;stroke-miterlimit:4;" d="M 480.625 272.207031 C 479.324219 273.269531 472.472656 280.367188 479.203125 282.964844 C 486.183594 281.070312 484.289062 279.773438 485.828125 278.234375 C 485.867188 275.042969 482.355469 274.21875 480.625 272.207031 Z M 480.625 272.207031 "/>
<path style="fill-rule:evenodd;fill:rgb(61.175537%,65.097046%,61.175537%);fill-opacity:1;stroke-width:1.111111;stroke-linecap:butt;stroke-linejoin:miter;stroke:rgb(61.175537%,65.097046%,61.175537%);stroke-opacity:1;stroke-miterlimit:4;" d="M 495.519531 339.230469 C 495.167969 340.765625 493.625 346.441406 495.757812 350.8125 C 501.664062 348.328125 504.382812 349.039062 506.394531 350.339844 C 501.546875 346.441406 499.660156 344.785156 495.519531 339.230469 Z M 495.519531 339.230469 "/>
<path style="fill-rule:evenodd;fill:rgb(99.998474%,99.998474%,99.998474%);fill-opacity:1;stroke-width:1.111111;stroke-linecap:butt;stroke-linejoin:miter;stroke:rgb(99.998474%,99.998474%,99.998474%);stroke-opacity:1;stroke-miterlimit:4;" d="M 505.6875 366.058594 L 506.039062 379.304688 C 506.039062 379.304688 510.648438 380.125 512.777344 379.304688 C 514.902344 378.472656 512.65625 370.078125 505.6875 366.058594 Z M 505.6875 366.058594 "/>
<path style="fill-rule:evenodd;fill:rgb(61.175537%,65.097046%,61.175537%);fill-opacity:1;stroke-width:1.111111;stroke-linecap:butt;stroke-linejoin:miter;stroke:rgb(0%,0%,0%);stroke-opacity:1;stroke-miterlimit:4;" d="M 539.140625 367.71875 C 539.140625 367.71875 530.625 347.152344 508.875 341.949219 C 487.125 336.746094 489.960938 313.578125 491.738281 312.160156 C 492.679688 310.152344 493.390625 307.074219 499.660156 310.03125 C 505.917969 312.988281 534.757812 327.527344 538.898438 328.234375 C 543.039062 328.945312 539.492188 368.191406 539.140625 367.71875 Z M 539.140625 367.71875 "/>
<path style="fill-rule:evenodd;fill:rgb(85.096741%,0%,0%);fill-opacity:1;stroke-width:1.111111;stroke-linecap:butt;stroke-linejoin:miter;stroke:rgb(0%,0%,0%);stroke-opacity:1;stroke-miterlimit:4;" d="M 518.453125 341.828125 C 518.09375 342.066406 547.53125 359.207031 538.660156 373.980469 C 547.058594 368.425781 544.335938 358.734375 544.335938 358.734375 C 544.335938 358.734375 551.191406 376.585938 534.527344 385.332031 C 536.300781 386.867188 537.484375 386.511719 537.484375 386.511719 L 534.644531 389.351562 C 534.644531 389.351562 533.34375 391.476562 544.574219 386.035156 C 541.5 388.519531 541.265625 390.292969 541.265625 390.292969 C 541.265625 390.292969 542.089844 392.660156 549.417969 386.273438 C 543.511719 392.660156 542.210938 395.96875 542.210938 395.851562 C 558.164062 394.429688 592.917969 342.539062 531.21875 327.167969 C 534.527344 330.597656 534.054688 330.125 534.054688 330.125 Z M 518.453125 341.828125 "/>
<path style="fill-rule:evenodd;fill:rgb(99.998474%,99.998474%,99.998474%);fill-opacity:1;stroke-width:1.111111;stroke-linecap:butt;stroke-linejoin:miter;stroke:rgb(0%,0%,0%);stroke-opacity:1;stroke-miterlimit:4;" d="M 519.753906 336.746094 C 523.769531 339.582031 525.191406 340.527344 525.664062 341.949219 C 521.996094 341.117188 518.683594 341.355469 518.683594 341.355469 C 518.683594 341.355469 510.769531 333.792969 509.347656 333.203125 C 508.285156 333.203125 502.136719 329.304688 502.136719 329.304688 C 499.066406 327.761719 496.230469 317.121094 507.574219 320.199219 C 519.277344 325.753906 520.929688 326.226562 520.929688 326.226562 C 525.582031 327.6875 530.230469 329.144531 534.878906 330.597656 C 537.558594 333.59375 540.242188 336.589844 542.917969 339.582031 C 542.917969 339.582031 528.617188 332.492188 526.84375 332.375 C 530.746094 335.5625 532.992188 339.9375 532.992188 339.9375 C 528.457031 338.640625 524.515625 337.457031 519.753906 336.746094 Z M 519.753906 336.746094 "/>
<path style=" stroke:none;fill-rule:evenodd;fill:rgb(0%,0%,0%);fill-opacity:1;" d="M 464.078125 273.269531 C 464.078125 273.269531 477.789062 269.960938 479.441406 270.433594 Z M 464.078125 273.269531 "/>
<path style="fill:none;stroke-width:1.111111;stroke-linecap:butt;stroke-linejoin:miter;stroke:rgb(99.998474%,99.998474%,99.998474%);stroke-opacity:1;stroke-miterlimit:4;" d="M 464.078125 273.269531 C 464.078125 273.269531 477.789062 269.960938 479.441406 270.433594 "/>
</g>
</svg>
